X:1
T: The Frost is All Gone
C:
R:Jig
Q:180
K:D
M:6/8
L:1/16
|:A2|d2e2f2 e2d2B2|A2d2F2 E4D2|D2F2A2 A2F2A2|B2e2e2 e2d2B2|
d2e2f2 e2d2B2|A2d2F2 E4D2|D2F2A2 A2F2A2|B2d2d2 d4:|
|:g2|f2a2a2 a2g2f2|g2b2b2 b2a2g2|f2a2a2 a2g2f2|g2f2g2 e4g2|
f2a2a2 a2g2f2|g2b2b2 b2a2g2|f2e2d2 e2a2g2|f2d2d2 d4:|
